svgs/halfadd.svg

<?xml version="1.0" encoding="UTF-8"?>
<svg width="187" height="134" xmlns="http://www.w3.org/2000/svg" xmlns:s="https://github.com/nturley/netlistsvg">
<style>svg {
    stroke:#000;
    fill:none;
  }
  text {
    fill:#000;
    stroke:none;
    font-size:10px;
    font-weight: bold;
    font-family: "Courier New", monospace;
  }
  .nodelabel {
    text-anchor: middle;
  }
  .inputPortLabel {
    text-anchor: end;
  }
  .splitjoinBody {
    fill:#000;
  }</style>
<g transform="translate(77,27)" s:height="25" s:type="reduce_xor" s:width="33">
<s:alias val="$xor"/>
<s:alias val="$reduce_xor"/>
<s:alias val="$_XOR_"/>
<path class="cell_$abc$113$auto$blifparse.cc:396:parse_blif$114" d="M3,0 A30 25 0 0 1 3,25 A30 25 0 0 0 33,12.5 A30 25 0 0 0 3,0"/>
<path class="cell_$abc$113$auto$blifparse.cc:396:parse_blif$114" d="m0 0a30 25 0 0 1 0 25"/>
</g>
<g transform="translate(78,92)" s:height="25" s:type="and" s:width="30">
<s:alias val="$and"/>
<s:alias val="$logic_and"/>
<s:alias val="$_AND_"/>
<path class="cell_$abc$113$auto$blifparse.cc:396:parse_blif$115" d="m0 0v25h15a15 12.5 0 0 0 0-25z"/>
</g>
<g transform="translate(12,102)" s:height="20" s:type="inputExt" s:width="30">
<text class="nodelabel cell_in1" x="15" y="-4" s:attribute="ref">in1</text>
<s:alias val="$_inputExt_"/>
<path class="cell_in1" d="m0 0v20h15l15-10-15-10z"/>
</g>
<g transform="translate(12,22)" s:height="20" s:type="inputExt" s:width="30">
<text class="nodelabel cell_in2" x="15" y="-4" s:attribute="ref">in2</text>
<s:alias val="$_inputExt_"/>
<path class="cell_in2" d="m0 0v20h15l15-10-15-10z"/>
</g>
<g transform="translate(145,29.5)" s:height="20" s:type="outputExt" s:width="30">
<text class="nodelabel cell_s" x="15" y="-4" s:attribute="ref">s</text>
<s:alias val="$_outputExt_"/>
<path class="cell_s" d="m30 0v20h-15l-15-10 15-10z"/>
</g>
<g transform="translate(145,94.5)" s:height="20" s:type="outputExt" s:width="30">
<text class="nodelabel cell_c" x="15" y="-4" s:attribute="ref">c</text>
<s:alias val="$_outputExt_"/>
<path class="cell_c" d="m30 0v20h-15l-15-10 15-10z"/>
</g>
<line class="net_3" x1="40" x2="80" y1="32" y2="32"/>
<line class="net_3" x1="40" x2="62" y1="32" y2="32"/>
<line class="net_3" x1="62" x2="62" y1="32" y2="97"/>
<circle class="net_3" cx="62" cy="32" r="2"/>
<line class="net_3" x1="62" x2="78" y1="97" y2="97"/>
<line class="net_2" x1="40" x2="52" y1="112" y2="112"/>
<line class="net_2" x1="52" x2="52" y1="112" y2="47"/>
<circle class="net_2" cx="52" cy="112" r="2"/>
<line class="net_2" x1="52" x2="80" y1="47" y2="47"/>
<line class="net_2" x1="40" x2="78" y1="112" y2="112"/>
<line class="net_4" x1="110" x2="145" y1="39.5" y2="39.5"/>
<line class="net_5" x1="108" x2="145" y1="104.5" y2="104.5"/>
</svg>

<svg xmlns="http://www.w3.org/2000/svg" xmlns:xlink="http://www.w3.org/1999/xlink" xmlns:s="https://github.com/nturley/netlistsvg" width="187" height="134">
  <style>svg {
    stroke:#000;
    fill:none;
  }
  text {
    fill:#000;
    stroke:none;
    font-size:10px;
    font-weight: bold;
    font-family: "Courier New", monospace;
  }
  .nodelabel {
    text-anchor: middle;
  }
  .inputPortLabel {
    text-anchor: end;
  }
  .splitjoinBody {
    fill:#000;
  }</style>
  <g s:type="reduce_xor" transform="translate(77,27)" s:width="33" s:height="25" id="cell_$abc$105$auto$blifparse.cc:396:parse_blif$106">
    <s:alias val="$xor"/>
    <s:alias val="$reduce_xor"/>
    <s:alias val="$_XOR_"/>
    <path d="M3,0 A30 25 0 0 1 3,25 A30 25 0 0 0 33,12.5 A30 25 0 0 0 3,0" class="cell_$abc$105$auto$blifparse.cc:396:parse_blif$106"/>
    <path d="M0,0 A30 25 0 0 1 0,25" class="cell_$abc$105$auto$blifparse.cc:396:parse_blif$106"/>
    <g s:x="3" s:y="5" s:pid="A"/>
    <g s:x="3" s:y="20" s:pid="B"/>
    <g s:x="33" s:y="12.5" s:pid="Y"/>
  </g>
  <g s:type="and" transform="translate(78,92)" s:width="30" s:height="25" id="cell_$abc$105$auto$blifparse.cc:396:parse_blif$107">
    <s:alias val="$and"/>
    <s:alias val="$logic_and"/>
    <s:alias val="$_AND_"/>
    <path d="M0,0 L0,25 L15,25 A15 12.5 0 0 0 15,0 Z" class="cell_$abc$105$auto$blifparse.cc:396:parse_blif$107"/>
    <g s:x="0" s:y="5" s:pid="A"/>
    <g s:x="0" s:y="20" s:pid="B"/>
    <g s:x="30" s:y="12.5" s:pid="Y"/>
  </g>
  <g s:type="inputExt" transform="translate(12,102)" s:width="30" s:height="20" id="cell_in1">
    <text x="15" y="-4" class="nodelabel cell_in1" s:attribute="ref">in1</text>
    <s:alias val="$_inputExt_"/>
    <path d="M0,0 L0,20 L15,20 L30,10 L15,0 Z" class="cell_in1"/>
    <g s:x="28" s:y="10" s:pid="Y"/>
  </g>
  <g s:type="inputExt" transform="translate(12,22)" s:width="30" s:height="20" id="cell_in2">
    <text x="15" y="-4" class="nodelabel cell_in2" s:attribute="ref">in2</text>
    <s:alias val="$_inputExt_"/>
    <path d="M0,0 L0,20 L15,20 L30,10 L15,0 Z" class="cell_in2"/>
    <g s:x="28" s:y="10" s:pid="Y"/>
  </g>
  <g s:type="outputExt" transform="translate(145,29.5)" s:width="30" s:height="20" id="cell_s">
    <text x="15" y="-4" class="nodelabel cell_s" s:attribute="ref">s</text>
    <s:alias val="$_outputExt_"/>
    <path d="M30,0 L30,20 L15,20 L0,10 L15,0 Z" class="cell_s"/>
    <g s:x="0" s:y="10" s:pid="A"/>
  </g>
  <g s:type="outputExt" transform="translate(145,94.5)" s:width="30" s:height="20" id="cell_c">
    <text x="15" y="-4" class="nodelabel cell_c" s:attribute="ref">c</text>
    <s:alias val="$_outputExt_"/>
    <path d="M30,0 L30,20 L15,20 L0,10 L15,0 Z" class="cell_c"/>
    <g s:x="0" s:y="10" s:pid="A"/>
  </g>
  <line x1="40" x2="80" y1="32" y2="32" class="net_3"/>
  <line x1="40" x2="62" y1="32" y2="32" class="net_3"/>
  <line x1="62" x2="62" y1="32" y2="97" class="net_3"/>
  <circle cx="62" cy="32" r="2" style="fill:#000" class="net_3"/>
  <line x1="62" x2="78" y1="97" y2="97" class="net_3"/>
  <line x1="40" x2="52" y1="112" y2="112" class="net_2"/>
  <line x1="52" x2="52" y1="112" y2="47" class="net_2"/>
  <circle cx="52" cy="112" r="2" style="fill:#000" class="net_2"/>
  <line x1="52" x2="80" y1="47" y2="47" class="net_2"/>
  <line x1="40" x2="78" y1="112" y2="112" class="net_2"/>
  <line x1="110" x2="145" y1="39.5" y2="39.5" class="net_4"/>
  <line x1="108" x2="145" y1="104.5" y2="104.5" class="net_5"/>
</svg>
